packages/webapp/public/images/template-logos/fitbit.svg

<svg width="62" height="62" viewBox="0 0 62 62" fill="none" xmlns="http://www.w3.org/2000/svg">
<rect width="62" height="62" rx="10" fill="white"/>
<g clip-path="url(#clip0_496_1028)">
<path d="M34.0255 30.8564C34.0255 32.6049 32.608 34.0224 30.8595 34.0224C29.111 34.0224 27.6935 32.6049 27.6935 30.8564C27.6935 29.1079 29.111 27.6904 30.8595 27.6904C32.608 27.6904 34.0255 29.1079 34.0255 30.8564Z" fill="#142529"/>
<path d="M43.373 30.8564C43.373 32.6049 41.9555 34.0224 40.2069 34.0224C38.4584 34.0224 37.0409 32.6049 37.0409 30.8564C37.0409 29.1079 38.4584 27.6904 40.2069 27.6904C41.9555 27.6904 43.373 29.1079 43.373 30.8564Z" fill="#142529"/>
<path d="M52.7204 30.8564C52.7204 32.6049 51.303 34.0224 49.5544 34.0224C47.8059 34.0224 46.3884 32.6049 46.3884 30.8564C46.3884 29.1079 47.8059 27.6904 49.5544 27.6904C51.303 27.6904 52.7204 29.1079 52.7204 30.8564Z" fill="#142529"/>
<path d="M24.6781 30.8564C24.6781 32.6049 23.2606 34.0224 21.512 34.0224C19.7635 34.0224 18.346 32.6049 18.346 30.8564C18.346 29.1079 19.7635 27.6904 21.512 27.6904C23.2606 27.6904 24.6781 29.1079 24.6781 30.8564Z" fill="#142529"/>
<path d="M34.0255 49.5576C34.0255 51.3061 32.608 52.7236 30.8595 52.7236C29.111 52.7236 27.6935 51.3061 27.6935 49.5576C27.6935 47.8091 29.111 46.3916 30.8595 46.3916C32.608 46.3916 34.0255 47.8091 34.0255 49.5576Z" fill="#2EBEC0"/>
<path d="M34.0255 12.166C34.0255 13.9145 32.608 15.332 30.8595 15.332C29.111 15.332 27.6935 13.9145 27.6935 12.166C27.6935 10.4175 29.111 9 30.8595 9C32.608 9 34.0255 10.4175 34.0255 12.166Z" fill="#2EBEC0"/>
<path d="M34.0255 40.583C34.0255 42.3315 32.608 43.749 30.8595 43.749C29.111 43.749 27.6935 42.3315 27.6935 40.583C27.6935 38.8345 29.111 37.417 30.8595 37.417C32.608 37.417 34.0255 38.8345 34.0255 40.583Z" fill="#2EBEC0"/>
<path d="M43.373 40.583C43.373 42.3315 41.9555 43.749 40.2069 43.749C38.4584 43.749 37.0409 42.3315 37.0409 40.583C37.0409 38.8345 38.4584 37.417 40.2069 37.417C41.9555 37.417 43.373 38.8345 43.373 40.583Z" fill="#142529"/>
<path d="M24.6781 40.583C24.6781 42.3315 23.2606 43.749 21.512 43.749C19.7635 43.749 18.346 42.3315 18.346 40.583C18.346 38.8345 19.7635 37.417 21.512 37.417C23.2606 37.417 24.6781 38.8345 24.6781 40.583Z" fill="#2EBEC0"/>
<path d="M34.0255 21.0009C34.0255 22.7495 32.608 24.1669 30.8595 24.1669C29.111 24.1669 27.6935 22.7495 27.6935 21.0009C27.6935 19.2524 29.111 17.835 30.8595 17.835C32.608 17.835 34.0255 19.2524 34.0255 21.0009Z" fill="#2EBEC0"/>
<path d="M43.373 21.0009C43.373 22.7495 41.9555 24.1669 40.2069 24.1669C38.4584 24.1669 37.0409 22.7495 37.0409 21.0009C37.0409 19.2524 38.4584 17.835 40.2069 17.835C41.9555 17.835 43.373 19.2524 43.373 21.0009Z" fill="#142529"/>
<path d="M24.6781 21.0009C24.6781 22.7495 23.2606 24.1669 21.512 24.1669C19.7635 24.1669 18.346 22.7495 18.346 21.0009C18.346 19.2524 19.7635 17.835 21.512 17.835C23.2606 17.835 24.6781 19.2524 24.6781 21.0009Z" fill="#2EBEC0"/>
<path d="M15.342 32.0781C15.342 33.8266 13.9245 35.2441 12.176 35.2441C10.4275 35.2441 9.00998 33.8266 9.00998 32.0781C9.00998 30.3296 10.4275 28.9121 12.176 28.9121C13.9245 28.9121 15.342 30.3296 15.342 32.0781Z" fill="#142529"/>
</g>
<defs>
<clipPath id="clip0_496_1028">
<rect width="44" height="44" fill="white" transform="translate(9 9)"/>
</clipPath>
</defs>
</svg>

<svg xmlns="http://www.w3.org/2000/svg" xmlns:xlink="http://www.w3.org/1999/xlink" width="62" height="62" fill="none"><rect width="62" height="62" rx="31" fill="#fff"/><g clip-path="url(#A)"><g fill="#142529"><use xlink:href="#B"/><path d="M43.373 30.856c0 1.749-1.417 3.166-3.166 3.166s-3.166-1.417-3.166-3.166 1.417-3.166 3.166-3.166 3.166 1.417 3.166 3.166zm9.348 0c0 1.749-1.418 3.166-3.166 3.166s-3.166-1.417-3.166-3.166 1.418-3.166 3.166-3.166 3.166 1.417 3.166 3.166zm-28.043 0c0 1.749-1.418 3.166-3.166 3.166s-3.166-1.417-3.166-3.166 1.418-3.166 3.166-3.166 3.166 1.417 3.166 3.166z"/></g><g fill="#2ebec0"><use xlink:href="#C"/><path d="M34.026 12.167c0 1.749-1.418 3.166-3.166 3.166s-3.166-1.418-3.166-3.166S29.111 9 30.86 9s3.166 1.417 3.166 3.166z"/><use xlink:href="#D"/></g><path d="M43.373 40.583c0 1.749-1.417 3.166-3.166 3.166s-3.166-1.418-3.166-3.166 1.417-3.166 3.166-3.166 3.166 1.417 3.166 3.166z" fill="#142529"/><g fill="#2ebec0"><path d="M24.678 40.583c0 1.749-1.418 3.166-3.166 3.166a3.17 3.17 0 0 1-3.166-3.166 3.17 3.17 0 0 1 3.166-3.166c1.748 0 3.166 1.417 3.166 3.166zm9.348-19.582c0 1.749-1.418 3.166-3.166 3.166s-3.166-1.417-3.166-3.166 1.418-3.166 3.166-3.166a3.17 3.17 0 0 1 3.166 3.166z"/></g><path d="M43.373 21.001c0 1.749-1.417 3.166-3.166 3.166s-3.166-1.417-3.166-3.166 1.417-3.166 3.166-3.166 3.166 1.418 3.166 3.166z" fill="#142529"/><path d="M24.678 21.001c0 1.749-1.418 3.166-3.166 3.166s-3.166-1.417-3.166-3.166 1.418-3.166 3.166-3.166 3.166 1.418 3.166 3.166z" fill="#2ebec0"/><path d="M15.342 32.079c0 1.749-1.418 3.166-3.166 3.166S9.01 33.827 9.01 32.079s1.417-3.166 3.166-3.166 3.166 1.418 3.166 3.166z" fill="#142529"/></g><defs><clipPath id="A"><path fill="#fff" transform="translate(9 9)" d="M0 0h44v44H0z"/></clipPath><path id="B" d="M34.026 30.856c0 1.749-1.418 3.166-3.166 3.166s-3.166-1.417-3.166-3.166 1.418-3.166 3.166-3.166 3.166 1.417 3.166 3.166z"/><path id="C" d="M34.026 49.558c0 1.749-1.418 3.166-3.166 3.166s-3.166-1.417-3.166-3.166 1.418-3.166 3.166-3.166 3.166 1.418 3.166 3.166z"/><path id="D" d="M34.026 40.583c0 1.749-1.418 3.166-3.166 3.166s-3.166-1.418-3.166-3.166 1.418-3.166 3.166-3.166 3.166 1.417 3.166 3.166z"/></defs></svg>
